release/img/icons/yt.svg

<svg width="22" height="22" viewBox="0 0 22 22" fill="none" xmlns="http://www.w3.org/2000/svg">
<path d="M17.7075 7.56466C17.5464 6.94878 17.072 6.46372 16.4697 6.29911C15.3779 6 11 6 11 6C11 6 6.6221 6 5.53029 6.29911C4.92795 6.46375 4.45356 6.94878 4.29254 7.56466C4 8.68099 4 11.0101 4 11.0101C4 11.0101 4 13.3392 4.29254 14.4555C4.45356 15.0714 4.92795 15.5363 5.53029 15.7009C6.6221 16 11 16 11 16C11 16 15.3779 16 16.4697 15.7009C17.072 15.5363 17.5464 15.0714 17.7075 14.4555C18 13.3392 18 11.0101 18 11.0101C18 11.0101 18 8.68099 17.7075 7.56466V7.56466ZM9.56817 13.1248V8.89544L13.2272 11.0102L9.56817 13.1248V13.1248Z" fill="white"/>
</svg>

<svg width="22" height="22" fill="none" xmlns="http://www.w3.org/2000/svg"><path d="M17.707 7.565a1.774 1.774 0 00-1.237-1.266C15.378 6 11 6 11 6s-4.378 0-5.47.3a1.774 1.774 0 00-1.237 1.265C4 8.68 4 11.01 4 11.01s0 2.33.293 3.446c.16.615.635 1.08 1.237 1.245C6.622 16 11 16 11 16s4.378 0 5.47-.3a1.747 1.747 0 001.238-1.244C18 13.338 18 11.01 18 11.01s0-2.329-.293-3.445zm-8.139 5.56v-4.23l3.66 2.115-3.66 2.115z" fill="#fff"/></svg>
